X:1003
T:Amazing Grace
R:Waltz
C:Carrell and Clayton 1831
N:Words by Newton 1779
O:England
M:3/4
L:1/4
Q:1/4=100
K:G
D|"G"G2 B/G/|B2 "D7"A|"Em"G2 "C"E|"G"D2 D|G2 B/G/|B2 "D7"A/B/|("D"d3|d)zB|
"G"d2 B/G/|B2A|"C"G2 E|"G"D2 D|"Em"G2 (3B/A/G/|"D"B2 A|("G"G3|G2)|]

